X:4
T:How can I Keep My Maidenhead
Z:Jack Campin <http://www.campin.me.uk/>
S:NLS MS 21717 (flute tunes)
M:C|
L:1/8
Q:1/2=112
K:F
F2FG AGFA|G/G/G Gc dcdf|fgfd cAFA|GAFC D/D/D [1 d2:|\
                                             [2 df||
cdfg agfa|gfga    Tgfdf|cdfg agfa|gfga f/f/f    f2:|
